src/icons/member/customerService.svg

<svg height="50" viewBox="0 0 50 50" width="50" xmlns="http://www.w3.org/2000/svg"><g fill="#fff"><path d="m0 0h50v50h-50z"/><path d="m4.566 21.51a4.078 4.078 0 0 1 -4.066-4.066v-12.877a4.078 4.078 0 0 1 4.066-4.067h19.655a4.108 4.108 0 0 1 4.066 4.067v12.877a4.108 4.108 0 0 1 -4.066 4.067h-13.244l-5.6 5.332z" style="stroke:#d6bc6f;stroke-linecap:round;stroke-linejoin:round;stroke-miterlimit:10;stroke-width:1.5;fill-rule:evenodd" transform="translate(4.315 7.452)"/><path d="m24.221 21.51a4.078 4.078 0 0 0 4.067-4.067v-12.876a4.078 4.078 0 0 0 -4.067-4.067h-19.654a4.108 4.108 0 0 0 -4.067 4.067v12.877a4.108 4.108 0 0 0 4.067 4.066h13.244l5.6 5.332z" style="stroke:#d6bc6f;stroke-linecap:round;stroke-linejoin:round;stroke-miterlimit:10;stroke-width:1.5;fill-rule:evenodd" transform="translate(16.398 15.507)"/></g><circle cx="24.75" cy="26.358" fill="#d6bc6f" r="1.51"/><circle cx="30.791" cy="26.358" fill="#d6bc6f" r="1.51"/><circle cx="36.833" cy="26.358" fill="#d6bc6f" r="1.51"/></svg>

<svg xmlns="http://www.w3.org/2000/svg" width="50" height="50" viewBox="0 0 50 50"><defs><style>.a,.b{fill:#fff;}.b{stroke:#d6bc6f;stroke-linecap:round;stroke-linejoin:round;stroke-miterlimit:10;stroke-width:1.5px;fill-rule:evenodd;}.c{fill:#d6bc6f;}</style></defs><g transform="translate(-5650 -2741)"><rect class="a" width="50" height="50" transform="translate(5650 2741)"/><g transform="translate(-71.036 -130.658)"><path class="b" d="M4.566,21.51A4.078,4.078,0,0,1,.5,17.444V4.567A4.078,4.078,0,0,1,4.566.5H24.221a4.108,4.108,0,0,1,4.066,4.067V17.444a4.108,4.108,0,0,1-4.066,4.067H10.977l-5.6,5.332Z" transform="translate(5725.351 2879.11)"/><g transform="translate(5737.934 2887.665)"><path class="b" d="M24.221,21.51a4.078,4.078,0,0,0,4.067-4.067V4.567A4.078,4.078,0,0,0,24.221.5H4.567A4.108,4.108,0,0,0,.5,4.567V17.444A4.108,4.108,0,0,0,4.567,21.51H17.811l5.6,5.332Z" transform="translate(-0.5 -0.5)"/><g transform="translate(6.342 8.841)"><circle class="c" cx="1.51" cy="1.51" r="1.51" transform="translate(0 0)"/><circle class="c" cx="1.51" cy="1.51" r="1.51" transform="translate(6.041 0)"/><circle class="c" cx="1.51" cy="1.51" r="1.51" transform="translate(12.083 0)"/></g></g></g></g></svg>
